static/img/misc/star-half.svg

<svg fill="none" height="69" viewBox="0 0 70 69" width="70" xmlns="http://www.w3.org/2000/svg"><g stroke="#fff" stroke-width="3.88715"><path d="m34.931 4.43262 9.8019 18.57788 20.6976 3.5812-14.6398 15.063 2.99 20.7913-18.8497-9.2685-18.8496 9.2685 2.99-20.7913-14.63977-15.063 20.69757-3.5812z"/><path d="m15.7948 62.446 18.8496-9.2685v-48.74488l-9.8018 18.57788-20.69758 3.5812 14.63968 15.063z" fill="#fff"/></g></svg>

<svg width="70" height="69" viewBox="0 0 70 69" fill="none" xmlns="http://www.w3.org/2000/svg">
<path d="M34.931 4.43262L44.7329 23.0105L65.4305 26.5917L50.7907 41.6547L53.7807 62.446L34.931 53.1775L16.0814 62.446L19.0714 41.6547L4.43163 26.5917L25.1292 23.0105L34.931 4.43262Z" stroke="white" stroke-width="3.88715"/>
<path d="M15.7948 62.446L34.6444 53.1775V4.43262L24.8426 23.0105L4.14502 26.5917L18.7847 41.6547L15.7948 62.446Z" fill="white" stroke="white" stroke-width="3.88715"/>
</svg>
